public/svgs/duotone/book-arrow-up.svg

<svg xmlns="http://www.w3.org/2000/svg" viewBox="0 0 448 512"><!-- Font Awesome Pro 6.0.0-alpha2 by @fontawesome - https://fontawesome.com License - https://fontawesome.com/license (Commercial License) --><defs><style>.fa-secondary{opacity:.4}</style></defs><path d="M64 416C64 433.672 78.328 448 96 448H216V384H96C78.328 384 64 398.326 64 416ZM264 384V448H416V384H264Z" class="fa-secondary"/><path d="M424 448H264V512H424C437.254 512 448 501.254 448 488V472C448 458.742 437.254 448 424 448ZM416 0H96C42.98 0 0 42.98 0 96V416C0 469.02 42.98 512 96 512H216V448H96C78.328 448 64 433.672 64 416S78.328 384 96 384H216V209.938L176.969 248.969C167.594 258.344 152.406 258.344 143.031 248.969S133.656 224.406 143.031 215.031L223.031 135.031C232.406 125.656 247.594 125.656 256.969 135.031L336.969 215.031C346.344 224.406 346.344 239.594 336.969 248.969C332.281 253.656 326.156 256 320 256S307.719 253.656 303.031 248.969L264 209.938V384H424C437.254 384 448 373.254 448 360V32C448 14.328 433.672 0 416 0Z" class="fa-primary"/></svg>

<svg xmlns="http://www.w3.org/2000/svg" viewBox="0 0 448 512"><!--! Font Awesome Pro 6.5.1 by @fontawesome - https://fontawesome.com License - https://fontawesome.com/license (Commercial License) Copyright 2023 Fonticons, Inc. --><defs><style>.fa-secondary{opacity:.4}</style></defs><path class="fa-secondary" d="M216 384H96c-17.7 0-32 14.3-32 32s14.3 32 32 32H216V384zm48 64H416V384H264v64z"/><path class="fa-primary" d="M96 0C43 0 0 43 0 96V416c0 53 43 96 96 96H216V448H96c-17.7 0-32-14.3-32-32s14.3-32 32-32H216l0-174.1-39 39c-9.4 9.4-24.6 9.4-33.9 0s-9.4-24.6 0-33.9l80-80c9.4-9.4 24.6-9.4 33.9 0l80 80c9.4 9.4 9.4 24.6 0 33.9s-24.6 9.4-33.9 0l-39-39V384h88 64c17.7 0 32-14.3 32-32V32c0-17.7-14.3-32-32-32H384 96zM264 448v64H384h32c17.7 0 32-14.3 32-32s-14.3-32-32-32H352 264z"/></svg>
